app/dist/common/images/hainan-mining-coltd.svg

<svg height="18" viewBox="0 0 18 18" width="18" xmlns="http://www.w3.org/2000/svg"><path d="m0 0h18v18h-18z" fill="#f0f3fa"/><g fill="#fdac3a"><path d="m5 5v8h1.66v-6.67h.58l1.09 2.67h1.34l1.09-2.67h.58v6.67h1.66v-8h-2.62l-1.23 1.33h-.3l-1.23-1.33z"/><path d="m8.24 10h1.52l1.24 3h-4z"/></g></svg>

<!-- by TradingView --><svg width="18" height="18" viewBox="0 0 18 18" xmlns="http://www.w3.org/2000/svg"><path fill="#F0F3FA" d="M0 0h18v18H0z"/><path d="M5 5v8h1.66V6.33h.58L8.33 9h1.34l1.09-2.67h.58V13H13V5h-2.62L9.15 6.33h-.3L7.62 5H5Z" fill="#FDAC3A"/><path d="M8.24 10h1.52L11 13H7l1.24-3Z" fill="#FDAC3A"/></svg>
